Papirus/32x32/mimetypes/application-x-hip.svg

<svg width="32" height="32" version="1.1" xmlns="http://www.w3.org/2000/svg">
 <path d="m7.25 5c-0.6925 0-1.25 0.5575-1.25 1.25v22.5c0 0.692 0.5575 1.25 1.25 1.25h17.5c0.692 0 1.25-0.558 1.25-1.25v-15.75l-8-8z" style="opacity:.2"/>
 <path d="m7.25 4c-0.6925 0-1.25 0.5575-1.25 1.25v22.5c0 0.692 0.5575 1.25 1.25 1.25h17.5c0.692 0 1.25-0.558 1.25-1.25v-15.75l-8-8z" style="fill:#f36128"/>
 <path d="m26 13-8-8v6.75c0 0.693 0.558 1.25 1.25 1.25z" style="opacity:.2"/>
 <path d="m26 12-8-8v6.75c0 0.693 0.558 1.25 1.25 1.25z" style="fill:#ebb9a1"/>
 <path d="M 7.25,4 C 6.5575,4 6,4.5575 6,5.25 v 1 C 6,5.5575 6.5575,5 7.25,5 H 18 V 4 Z" style="fill:#ffffff;opacity:.2"/>
 <path d="m12.442188 14.000003c-2.5836927-0.001598-4.7660284 0.830382-6.442188 2.117004v2.518695c1.3700342-1.422648 3.371221-2.41498 5.924083-2.453697 0.170188-0.0026 0.343032-8.25e-4 0.518105 0.0052 3.953197 0.136756 6.583809 3.29177 6.587802 6.568757 0.0049 3.618931-2.229844 6.090542-5.997542 6.04357-2.565939-0.03189-5.0661858-1.788765-5.0022813-4.461504 0.050591-2.122242 1.5521188-3.838701 3.9387683-3.895365 1.929115-0.04575 2.706239 1.286627 2.706239 2.111154 0 0.781708-0.462028 1.789361-1.597221 2.031856-0.916848 0.19586-2.213905-0.766209-1.23448-2.078655-1.001169-0.04557-1.8742331 0.587818-1.9261561 1.709463-0.1002929 2.175103 2.1528641 3.019664 3.5929331 2.788439 2.640494-0.423791 3.619216-2.143128 3.607235-4.478402-0.01288-2.443454-2.224314-4.604952-5.090693-4.633749-2.2943453-0.022852-5.0331682 1.293318-6.026792 4.163809v4.397807c0.3523879 0.918212 0.9405186 1.801969 1.7374814 2.543523 1.2625186 0.002755 10.262519 0.002755 11.135265 2.04e-4 1.627937-1.438547 2.610205-3.585807 2.611254-6.255147 0.0013-4.875059-3.510533-8.739677-9.041812-8.742961z" style="fill:#020202;opacity:.2"/>
 <path d="m12.442134 13.000002c-2.583671-0.001598-4.7659884 0.830346-6.442134 2.116911v2.518584c1.3700227-1.422586 3.3711928-2.414874 5.924033-2.453589 0.170187-0.0026 0.34303-8.25e-4 0.518101 0.0052 3.953164 0.13675 6.583754 3.291624 6.587747 6.568467 0.0049 3.618771-2.229825 6.090273-5.997492 6.043303-2.565917-0.03189-5.0661433-1.788686-5.0022393-4.461307 0.050591-2.122148 1.5521058-3.838532 3.9387353-3.895193 1.929099-0.04575 2.706216 1.28657 2.706216 2.111061 0 0.781673-0.462024 1.789282-1.597207 2.031766-0.916841 0.195851-2.213887-0.766175-1.23447-2.078563-1.001161-0.04557-1.8742173 0.587792-1.9261399 1.709387-0.1002921 2.175007 2.1528459 3.019531 3.5929029 2.788316 2.640472-0.423772 3.619186-2.143033 3.607205-4.478204-0.01288-2.443346-2.224295-4.604749-5.09065-4.633545-2.2943265-0.022851-5.0331265 1.293261-6.026742 4.163626v4.397612c0.5307551 1.382932 1.5963061 2.687703 3.1047035 3.546166h8.3221195c2.474943-1.324699 4.055716-3.870886 4.057047-7.257422 0.0013-4.874844-3.510503-8.739291-9.041736-8.742576z" style="fill:#e4e4e4"/>
</svg>

<svg xmlns="http://www.w3.org/2000/svg" width="32" height="32" version="1.1">
 <path style="opacity:0.2" d="m7.25 5c-0.6925 0-1.25 0.5575-1.25 1.25v22.5c0 0.692 0.5575 1.25 1.25 1.25h17.5c0.692 0 1.25-0.558 1.25-1.25v-15.75l-8-8z"/>
 <path style="fill:#f36128" d="m7.25 4c-0.6925 0-1.25 0.5575-1.25 1.25v22.5c0 0.692 0.5575 1.25 1.25 1.25h17.5c0.692 0 1.25-0.558 1.25-1.25v-15.75l-8-8z"/>
 <path style="opacity:0.2" d="m26 13-8-8v6.75c0 0.693 0.558 1.25 1.25 1.25z"/>
 <path style="fill:#ebb9a1" d="m26 12-8-8v6.75c0 0.693 0.558 1.25 1.25 1.25z"/>
 <path style="fill:#ffffff;opacity:0.2" d="M 7.25,4 C 6.5575,4 6,4.5575 6,5.25 v 1 C 6,5.5575 6.5575,5 7.25,5 H 18 V 4 Z"/>
 <path style="opacity:0.2" d="M 12.442,14 C 9.8585,13.998 7.6762,14.83 6,16.117 V 18.636 C 7.37,17.213 9.3712,16.221 11.924,16.182 12.094,16.179 12.267,16.181 12.442,16.187 16.395,16.324 19.026,19.479 19.03,22.756 19.035,26.375 16.8,28.847 13.032,28.8 10.467,28.768 7.9663,27.011 8.0302,24.338 8.0808,22.216 9.5823,20.499 11.969,20.443 13.898,20.397 14.675,21.729 14.675,22.554 14.675,23.336 14.213,24.343 13.078,24.586 12.161,24.782 10.864,23.819 11.843,22.507 10.842,22.461 9.9692,23.095 9.9173,24.216 9.817,26.392 12.07,27.236 13.51,27.005 16.151,26.581 17.129,24.862 17.117,22.527 17.105,20.083 14.893,17.922 12.027,17.893 9.7324,17.87 6.9936,19.186 6,22.057 V 26.454 C 6.3524,27.373 6.9405,28.256 7.7375,28.998 9,29.001 18,29.001 18.873,28.998 20.501,27.56 21.483,25.412 21.484,22.743 21.485,17.868 17.973,14.003 12.442,14 Z"/>
 <path style="fill:#e4e4e4" d="M 12.442,13 C 9.8585,12.998 7.6761,13.83 6,15.117 V 17.635 C 7.37,16.213 9.3712,15.221 11.924,15.182 12.094,15.179 12.267,15.181 12.442,15.187 16.395,15.324 19.026,18.479 19.03,21.756 19.035,25.374 16.8,27.846 13.032,27.799 10.466,27.767 7.9662,26.01 8.0301,23.338 8.0807,21.215 9.5823,19.499 11.969,19.442 13.898,19.397 14.675,20.729 14.675,21.553 14.675,22.335 14.213,23.343 13.078,23.585 12.161,23.781 10.864,22.819 11.843,21.507 10.842,21.461 9.9692,22.094 9.9173,23.216 9.817,25.391 12.07,26.236 13.51,26.004 16.151,25.581 17.129,23.861 17.117,21.526 17.105,19.083 14.893,16.921 12.027,16.893 9.7324,16.87 6.9936,18.186 6,21.056 V 25.454 C 6.5308,26.837 7.5963,28.142 9.1047,29 H 17.427 C 19.902,27.675 21.483,25.129 21.484,21.743 21.485,16.868 17.973,13.003 12.442,13 Z"/>
</svg>
